apps/64/gitkraken.svg

<svg xmlns="http://www.w3.org/2000/svg" style="isolation:isolate" width="256" height="256"><g filter="url(#a)"><linearGradient id="b" x1=".5" y1="-.036" x2=".5" y2="1.036" gradientTransform="matrix(244.648 0 0 228.338 5.676 11.947)" gradientUnits="userSpaceOnUse"><stop offset="0%" stop-color="#4d4d4d"/><stop offset="98.696%" stop-color="#6c6c6c"/></linearGradient><path d="M165.685 11.947c74.055 0 84.639 10.557 84.639 84.544v59.251c0 73.986-10.584 84.543-84.639 84.543h-75.37c-74.055 0-84.639-10.557-84.639-84.543V96.491c0-73.987 10.584-84.544 84.639-84.544h75.37z" fill="url(#b)"/></g><defs><filter id="a" x="-200%" y="-200%" width="400%" height="400%" filterUnits="objectBoundingBox" color-interpolation-filters="sRGB"><feGaussianBlur xmlns="http://www.w3.org/2000/svg" in="SourceGraphic" stdDeviation="4.294"/><feOffset xmlns="http://www.w3.org/2000/svg" dy="4" result="pf_100_offsetBlur"/><feFlood xmlns="http://www.w3.org/2000/svg" flood-color="#000" flood-opacity=".4"/><feComposite xmlns="http://www.w3.org/2000/svg" in2="pf_100_offsetBlur" operator="in" result="pf_100_dropShadow"/><feBlend xmlns="http://www.w3.org/2000/svg" in="SourceGraphic" in2="pf_100_dropShadow"/></filter></defs><path d="M5.676 126.116v29.626c0 73.986 10.584 84.543 84.639 84.543h75.37c74.055 0 84.639-10.557 84.639-84.543v-29.626H5.676z" fill="#FFF" opacity=".1"/><defs><filter id="c" x="-200%" y="-200%" width="400%" height="400%" filterUnits="objectBoundingBox" color-interpolation-filters="sRGB"><feGaussianBlur xmlns="http://www.w3.org/2000/svg" in="SourceGraphic" stdDeviation="4.294"/><feOffset xmlns="http://www.w3.org/2000/svg" dy="4" result="pf_100_offsetBlur"/><feFlood xmlns="http://www.w3.org/2000/svg" flood-color="#000" flood-opacity=".4"/><feComposite xmlns="http://www.w3.org/2000/svg" in2="pf_100_offsetBlur" operator="in" result="pf_100_dropShadow"/><feBlend xmlns="http://www.w3.org/2000/svg" in="SourceGraphic" in2="pf_100_dropShadow"/></filter></defs><path d="M144.772 149.688a5.56 5.56 0 1 0-.001 11.12 5.56 5.56 0 0 0 .001-11.12zM128 171.943c-.027.044-.053.073-.077.074h-.029c-1.382-.04-2.762-.108-3.692-.087v-.015h-.007V209c-46.874-2.936-81.544-41.802-81.56-88.773.023-7.507 1.001-15.175 2.903-22.437q2.188-6.751 5.674-6.677 7.689.164 5.822 6.677c-2.162 7.217-3.267 14.903-3.28 22.437.089 36.502 23.669 68.049 59.319 75.87v-11.331c-3.455-.89-6.834-1.966-10.049-3.366l-1.072-.522c-22.99-10.514-37.069-33.635-37.069-60.658 0-20.004 8.758-36.172 22.611-48.383v.008q20.371-16.823 25.579-11.614 5.604 6.858-5.662 11.614c-18.601 8.975-31.408 26.27-31.408 48.382 0 20.653 9.322 38.569 25.949 48.162l.009-7.58c-2.012 0-3.708-3.707-3.708-7.414s1.599-7.414 3.708-7.414c-1.539-7.822-.362-13.346-6.907-19.281-3.83-2.544-4.221-3.251-4.221-7.675 0-6.673 4.674-16.276 13.726-28.164 4.999-6.32 12.229-19.02 23.35-19.02.03 0 .061.001.091.004a.883.883 0 0 1 .089-.004c11.122 0 18.353 12.7 23.351 19.02 9.052 11.888 13.728 21.491 13.728 28.164 0 4.424-.392 5.131-4.222 7.675-6.545 5.935-5.37 11.459-6.907 19.281 2.108 0 3.707 3.707 3.707 7.414s-1.696 7.414-3.707 7.414l.007 7.58c16.627-9.593 25.95-27.509 25.95-48.162 0-22.112-12.808-39.407-31.409-48.382q-11.264-4.756-5.662-11.614 5.209-5.209 25.58 11.614v-.008c13.853 12.211 22.612 28.379 22.612 48.383 0 27.023-14.08 50.144-37.071 60.658l-1.072.522c-3.213 1.4-6.594 2.476-10.049 3.366v11.331c35.651-7.821 59.233-39.368 59.319-75.87-.011-7.534-1.116-15.22-3.28-22.437q-1.867-6.513 5.823-6.677 3.487-.074 5.674 6.677c1.901 7.262 2.88 14.93 2.904 22.437-.018 46.971-34.686 85.837-81.561 88.773v-37.085h-.008v.015c-.929-.021-2.309.047-3.692.087h-.029c-.023-.001-.048-.03-.075-.074zm-16.773-22.255a5.559 5.559 0 0 0-5.559 5.56 5.56 5.56 0 1 0 5.559-5.56z" fill-rule="evenodd" fill="#3FB2AB" filter="url(#c)"/><path d="M139.211 155.248a5.563 5.563 0 0 1 5.561-5.56 5.562 5.562 0 0 1 5.56 5.56 5.563 5.563 0 0 1-5.56 5.561 5.564 5.564 0 0 1-5.561-5.561z" fill="#FFF"/><path d="M140.571 154.662a2.638 2.638 0 1 1 5.275-.102 2.638 2.638 0 0 1-5.275.102z" fill="#2E2E2E"/><path d="M105.668 155.248c0-3.069 2.49-5.56 5.559-5.56a5.563 5.563 0 0 1 5.561 5.56 5.564 5.564 0 0 1-5.561 5.561 5.562 5.562 0 0 1-5.559-5.561z" fill="#FFF"/><path d="M107.027 154.662a2.638 2.638 0 0 1 5.275 0 2.639 2.639 0 0 1-2.637 2.638 2.64 2.64 0 0 1-2.638-2.638z" fill="#2E2E2E"/><g opacity=".4"><linearGradient id="d" x1=".517" x2=".517" y2="1" gradientTransform="matrix(244.65 0 0 228.34 5.68 11.95)" gradientUnits="userSpaceOnUse"><stop offset="0%" stop-color="#fff"/><stop offset="12.5%" stop-opacity=".098" stop-color="#fff"/><stop offset="92.5%" stop-opacity=".098"/><stop offset="100%" stop-opacity=".498"/></linearGradient><path d="M165.068 11.951c4.328-.01 8.656.04 12.984.138 3.875.078 7.75.226 11.626.452 3.453.196 6.905.481 10.348.854 3.06.335 6.118.786 9.148 1.346a80.47 80.47 0 0 1 8.046 1.916 53.64 53.64 0 0 1 7.023 2.584 40.413 40.413 0 0 1 6.06 3.35 35.176 35.176 0 0 1 5.134 4.215 35.072 35.072 0 0 1 4.22 5.119 41.692 41.692 0 0 1 3.363 6.042 55.982 55.982 0 0 1 2.597 7.005 80.224 80.224 0 0 1 1.918 8.037 124.43 124.43 0 0 1 1.348 9.127c.374 3.439.659 6.878.856 10.326.226 3.861.373 7.732.462 11.593.088 4.323.138 8.646.128 12.96v58.21c.01 4.324-.04 8.637-.128 12.96a325.177 325.177 0 0 1-.462 11.593 200.984 200.984 0 0 1-.856 10.326 124.691 124.691 0 0 1-1.348 9.137 80.687 80.687 0 0 1-1.918 8.027 55.414 55.414 0 0 1-2.597 7.005 41.18 41.18 0 0 1-3.364 6.042 34.559 34.559 0 0 1-4.22 5.119 35.177 35.177 0 0 1-5.134 4.215 40.412 40.412 0 0 1-6.059 3.35 55.138 55.138 0 0 1-7.023 2.594 77.806 77.806 0 0 1-8.046 1.906 120 120 0 0 1-9.148 1.346c-3.443.373-6.895.658-10.348.854-3.875.226-7.75.374-11.626.462-4.328.088-8.656.138-12.984.128H90.942c-4.328.01-8.656-.04-12.984-.128a328.387 328.387 0 0 1-11.626-.462 203.003 203.003 0 0 1-10.348-.854 120 120 0 0 1-9.148-1.346 77.806 77.806 0 0 1-8.046-1.906 55.139 55.139 0 0 1-7.023-2.594 40.413 40.413 0 0 1-6.06-3.35 35.176 35.176 0 0 1-5.134-4.215 34.56 34.56 0 0 1-4.22-5.119 41.183 41.183 0 0 1-3.363-6.042 55.415 55.415 0 0 1-2.597-7.005 80.682 80.682 0 0 1-1.918-8.027 124.688 124.688 0 0 1-1.348-9.137 200.993 200.993 0 0 1-.856-10.326 325.212 325.212 0 0 1-.462-11.593 569.197 569.197 0 0 1-.128-12.96v-58.21c-.01-4.314.04-8.637.128-12.96.089-3.86.236-7.732.462-11.593.197-3.448.482-6.887.856-10.326.335-3.055.787-6.101 1.348-9.127a80.219 80.219 0 0 1 1.918-8.037 55.983 55.983 0 0 1 2.597-7.005 41.695 41.695 0 0 1 3.364-6.042 35.072 35.072 0 0 1 4.22-5.119 35.176 35.176 0 0 1 5.134-4.215 40.413 40.413 0 0 1 6.059-3.35 53.64 53.64 0 0 1 7.023-2.584 80.47 80.47 0 0 1 8.046-1.916 125.11 125.11 0 0 1 9.148-1.346c3.443-.373 6.895-.658 10.348-.854 3.875-.226 7.75-.374 11.626-.452 4.328-.098 8.656-.148 12.984-.138h74.126zm.01 4.009c4.298-.01 8.597.039 12.895.127 3.827.089 7.653.236 11.48.452 3.383.197 6.766.472 10.13.845 2.971.315 5.932.747 8.863 1.297a75.943 75.943 0 0 1 7.653 1.818 50.493 50.493 0 0 1 6.501 2.397 37.038 37.038 0 0 1 5.47 3.026 30.383 30.383 0 0 1 4.524 3.724 31.05 31.05 0 0 1 3.738 4.519 37.271 37.271 0 0 1 3.03 5.443 51.46 51.46 0 0 1 2.4 6.494 75.563 75.563 0 0 1 1.829 7.634c.54 2.928.974 5.875 1.298 8.842.374 3.36.65 6.73.846 10.11.217 3.822.374 7.634.453 11.456.088 4.293.137 8.577.137 12.87v58.212c0 4.293-.049 8.577-.137 12.87a317.503 317.503 0 0 1-.453 11.456c-.196 3.38-.472 6.75-.846 10.12a121.689 121.689 0 0 1-1.298 8.832 75.562 75.562 0 0 1-1.83 7.634 50.902 50.902 0 0 1-2.4 6.494 36.767 36.767 0 0 1-3.03 5.443 30.615 30.615 0 0 1-3.737 4.53 30.938 30.938 0 0 1-4.525 3.713 37.038 37.038 0 0 1-5.469 3.026 49.07 49.07 0 0 1-6.501 2.397 75.942 75.942 0 0 1-7.653 1.818c-2.931.55-5.892.982-8.863 1.306-3.364.364-6.747.649-10.13.836-3.827.216-7.653.373-11.48.452-4.298.098-8.597.137-12.895.137H90.932c-4.298 0-8.597-.04-12.895-.137a320.093 320.093 0 0 1-11.48-.452 193.696 193.696 0 0 1-10.13-.836 116.71 116.71 0 0 1-8.863-1.306 75.942 75.942 0 0 1-7.653-1.818 49.07 49.07 0 0 1-6.501-2.397 37.038 37.038 0 0 1-5.47-3.026 30.938 30.938 0 0 1-4.524-3.714 30.615 30.615 0 0 1-3.738-4.529 36.766 36.766 0 0 1-3.03-5.443 50.903 50.903 0 0 1-2.4-6.494 75.567 75.567 0 0 1-1.829-7.634 121.69 121.69 0 0 1-1.298-8.832c-.374-3.37-.65-6.74-.846-10.12a317.535 317.535 0 0 1-.453-11.456 623.851 623.851 0 0 1-.137-12.87V97.014c0-4.293.049-8.577.137-12.87.079-3.822.236-7.634.453-11.456.197-3.38.472-6.75.846-10.11.324-2.967.757-5.914 1.298-8.842a75.568 75.568 0 0 1 1.83-7.634 51.46 51.46 0 0 1 2.4-6.494 37.27 37.27 0 0 1 3.03-5.443 31.05 31.05 0 0 1 3.737-4.52 30.384 30.384 0 0 1 4.525-3.723 37.039 37.039 0 0 1 5.469-3.026 50.494 50.494 0 0 1 6.501-2.397 75.943 75.943 0 0 1 7.653-1.818c2.931-.55 5.892-.982 8.863-1.297 3.364-.373 6.747-.648 10.13-.845a344.71 344.71 0 0 1 11.48-.452c4.298-.088 8.597-.137 12.895-.127H165.078z" fill-rule="evenodd" fill="url(#d)"/></g></svg>

<?xml version="1.0" standalone="no"?><!-- Generator: Gravit.io --><svg xmlns="http://www.w3.org/2000/svg" xmlns:xlink="http://www.w3.org/1999/xlink" style="isolation:isolate" viewBox="0 0 256 256" width="256" height="256"><g id="Group" filter="url(#boLhmsVktAZJADUuIGX8RcfIYdkQMiB1)"><linearGradient id="_lgradient_136" x1="0.49999999999999994" y1="-0.036" x2="0.4999999999999997" y2="1.036" gradientTransform="matrix(244.648,0,0,228.338,5.676,11.947)" gradientUnits="userSpaceOnUse"><stop offset="0%" stop-opacity="1" style="stop-color:rgb(77,77,77)"/><stop offset="98.696%" stop-opacity="1" style="stop-color:rgb(108,108,108)"/></linearGradient><path d=" M 165.685 11.947 C 239.74 11.947 250.324 22.504 250.324 96.491 L 250.324 155.742 C 250.324 229.728 239.74 240.285 165.685 240.285 L 90.315 240.285 C 16.26 240.285 5.676 229.728 5.676 155.742 L 5.676 96.491 C 5.676 22.504 16.26 11.947 90.315 11.947 L 165.685 11.947 L 165.685 11.947 Z " id="Path" fill="url(#_lgradient_136)"/></g><defs><filter id="boLhmsVktAZJADUuIGX8RcfIYdkQMiB1" x="-200%" y="-200%" width="400%" height="400%" filterUnits="objectBoundingBox" color-interpolation-filters="sRGB"><feGaussianBlur xmlns="http://www.w3.org/2000/svg" in="SourceGraphic" stdDeviation="4.294"/><feOffset xmlns="http://www.w3.org/2000/svg" dx="0" dy="4" result="pf_100_offsetBlur"/><feFlood xmlns="http://www.w3.org/2000/svg" flood-color="#000000" flood-opacity="0.4"/><feComposite xmlns="http://www.w3.org/2000/svg" in2="pf_100_offsetBlur" operator="in" result="pf_100_dropShadow"/><feBlend xmlns="http://www.w3.org/2000/svg" in="SourceGraphic" in2="pf_100_dropShadow" mode="normal"/></filter></defs><g opacity="0.2"><path d=" M 144.772 153.688 C 141.701 153.688 139.212 156.177 139.212 159.247 C 139.211 162.318 141.7 164.808 144.771 164.808 C 147.842 164.808 150.331 162.319 150.332 159.249 C 150.332 156.178 147.843 153.688 144.772 153.688 L 144.772 153.688 Z  M 128 175.943 C 127.973 175.987 127.947 176.016 127.923 176.017 L 127.894 176.017 C 126.512 175.977 125.132 175.909 124.202 175.93 L 124.202 175.915 L 124.195 175.915 L 124.195 213 C 77.321 210.064 42.651 171.198 42.635 124.227 C 42.658 116.72 43.636 109.052 45.538 101.79 Q 47.726 95.039 51.212 95.113 Q 58.901 95.277 57.034 101.79 C 54.872 109.007 53.767 116.693 53.754 124.227 C 53.843 160.729 77.423 192.276 113.073 200.097 L 113.073 188.766 C 109.618 187.876 106.239 186.8 103.024 185.4 L 101.952 184.878 C 78.962 174.364 64.883 151.243 64.883 124.22 C 64.883 104.216 73.641 88.048 87.494 75.837 L 87.494 75.845 Q 107.865 59.022 113.073 64.231 Q 118.677 71.089 107.411 75.845 C 88.81 84.82 76.003 102.115 76.003 124.227 C 76.003 144.88 85.325 162.796 101.952 172.389 L 101.961 164.809 C 99.949 164.809 98.253 161.102 98.253 157.395 C 98.253 153.688 99.852 149.981 101.961 149.981 C 100.422 142.159 101.599 136.635 95.054 130.7 C 91.224 128.156 90.833 127.449 90.833 123.025 C 90.833 116.352 95.507 106.749 104.559 94.861 C 109.558 88.541 116.788 75.841 127.909 75.841 C 127.939 75.841 127.97 75.842 128 75.845 C 128.03 75.842 128.059 75.841 128.089 75.841 C 139.211 75.841 146.442 88.541 151.44 94.861 C 160.492 106.749 165.168 116.352 165.168 123.025 C 165.168 127.449 164.776 128.156 160.946 130.7 C 154.401 136.635 155.576 142.159 154.039 149.981 C 156.147 149.981 157.746 153.688 157.746 157.395 C 157.746 161.102 156.05 164.809 154.039 164.809 L 154.046 172.389 C 170.673 162.796 179.996 144.88 179.996 124.227 C 179.996 102.115 167.188 84.82 148.587 75.845 Q 137.323 71.089 142.925 64.231 Q 148.134 59.022 168.505 75.845 L 168.505 75.837 C 182.358 88.048 191.117 104.216 191.117 124.22 C 191.117 151.243 177.037 174.364 154.046 184.878 L 152.974 185.4 C 149.761 186.8 146.38 187.876 142.925 188.766 L 142.925 200.097 C 178.576 192.276 202.158 160.729 202.244 124.227 C 202.233 116.693 201.128 109.007 198.964 101.79 Q 197.097 95.277 204.787 95.113 Q 208.274 95.039 210.461 101.79 C 212.362 109.052 213.341 116.72 213.365 124.227 C 213.347 171.198 178.679 210.064 131.804 213 L 131.804 175.915 L 131.796 175.915 L 131.796 175.93 C 130.867 175.909 129.487 175.977 128.104 176.017 L 128.075 176.017 C 128.052 176.016 128.027 175.987 128 175.943 L 128 175.943 Z  M 111.227 153.688 C 109.752 153.688 108.338 154.274 107.296 155.317 C 106.253 156.359 105.668 157.773 105.668 159.248 C 105.668 161.497 107.023 163.524 109.101 164.385 C 111.178 165.245 113.57 164.77 115.16 163.179 C 116.75 161.589 117.225 159.197 116.364 157.12 C 115.504 155.042 113.476 153.688 111.227 153.688 L 111.227 153.688 Z " fill-rule="evenodd" id="Compound Path" fill="rgb(0,0,0)"/></g><linearGradient id="_lgradient_137" x1="0.5163500212550276" y1="1.6512932582399777" x2="0.520437526568784" y2="-0.01290630556455774" gradientTransform="matrix(170.73,0,0,150.001,42.635,58.999)" gradientUnits="userSpaceOnUse"><stop offset="0%" stop-opacity="1" style="stop-color:rgb(5,117,230)"/><stop offset="100%" stop-opacity="1" style="stop-color:rgb(0,242,96)"/></linearGradient><path d=" M 144.772 149.688 C 141.701 149.688 139.212 152.177 139.212 155.247 C 139.211 158.318 141.7 160.808 144.771 160.808 C 147.842 160.808 150.331 158.319 150.331 155.249 C 150.332 152.178 147.843 149.688 144.772 149.688 L 144.772 149.688 Z  M 128 171.943 C 127.973 171.987 127.947 172.016 127.923 172.017 L 127.894 172.017 C 126.512 171.977 125.132 171.909 124.202 171.93 L 124.202 171.915 L 124.195 171.915 L 124.195 209 C 77.321 206.064 42.651 167.198 42.635 120.227 C 42.658 112.72 43.636 105.052 45.538 97.79 Q 47.726 91.039 51.212 91.113 Q 58.901 91.277 57.034 97.79 C 54.872 105.007 53.767 112.693 53.754 120.227 C 53.843 156.729 77.423 188.276 113.073 196.097 L 113.073 184.766 C 109.618 183.876 106.239 182.8 103.024 181.4 L 101.952 180.878 C 78.962 170.364 64.883 147.243 64.883 120.22 C 64.883 100.216 73.641 84.048 87.494 71.837 L 87.494 71.845 Q 107.865 55.022 113.073 60.231 Q 118.677 67.089 107.411 71.845 C 88.81 80.82 76.003 98.115 76.003 120.227 C 76.003 140.88 85.325 158.796 101.952 168.389 L 101.961 160.809 C 99.949 160.809 98.253 157.102 98.253 153.395 C 98.253 149.688 99.852 145.981 101.961 145.981 C 100.422 138.159 101.599 132.635 95.054 126.7 C 91.224 124.156 90.833 123.449 90.833 119.025 C 90.833 112.352 95.507 102.749 104.559 90.861 C 109.558 84.541 116.788 71.841 127.909 71.841 C 127.939 71.841 127.97 71.842 128 71.845 C 128.03 71.842 128.059 71.841 128.089 71.841 C 139.211 71.841 146.442 84.541 151.44 90.861 C 160.492 102.749 165.168 112.352 165.168 119.025 C 165.168 123.449 164.776 124.156 160.946 126.7 C 154.401 132.635 155.576 138.159 154.039 145.981 C 156.147 145.981 157.746 149.688 157.746 153.395 C 157.746 157.102 156.05 160.809 154.039 160.809 L 154.046 168.389 C 170.673 158.796 179.996 140.88 179.996 120.227 C 179.996 98.115 167.188 80.82 148.587 71.845 Q 137.323 67.089 142.925 60.231 Q 148.134 55.022 168.505 71.845 L 168.505 71.837 C 182.358 84.048 191.117 100.216 191.117 120.22 C 191.117 147.243 177.037 170.364 154.046 180.878 L 152.974 181.4 C 149.761 182.8 146.38 183.876 142.925 184.766 L 142.925 196.097 C 178.576 188.276 202.158 156.729 202.244 120.227 C 202.233 112.693 201.128 105.007 198.964 97.79 Q 197.097 91.277 204.787 91.113 Q 208.274 91.039 210.461 97.79 C 212.362 105.052 213.341 112.72 213.365 120.227 C 213.347 167.198 178.679 206.064 131.804 209 L 131.804 171.915 L 131.796 171.915 L 131.796 171.93 C 130.867 171.909 129.487 171.977 128.104 172.017 L 128.075 172.017 C 128.052 172.016 128.027 171.987 128 171.943 L 128 171.943 Z  M 111.227 149.688 C 109.752 149.688 108.338 150.274 107.296 151.317 C 106.253 152.359 105.668 153.773 105.668 155.248 C 105.668 157.497 107.023 159.524 109.101 160.385 C 111.178 161.245 113.57 160.77 115.16 159.179 C 116.75 157.589 117.225 155.197 116.364 153.12 C 115.504 151.042 113.476 149.688 111.227 149.688 L 111.227 149.688 Z " fill-rule="evenodd" id="Compound Path" fill="url(#_lgradient_137)"/><path d=" M 139.211 155.248 C 139.213 152.178 141.702 149.689 144.772 149.688 C 147.842 149.689 150.331 152.178 150.332 155.248 C 150.331 158.318 147.842 160.807 144.772 160.809 C 141.701 160.807 139.213 158.319 139.211 155.248 L 139.211 155.248 Z " id="Path" fill="rgb(255,255,255)"/><path d=" M 140.571 154.662 C 140.551 153.718 141.036 152.836 141.844 152.347 C 142.652 151.859 143.659 151.84 144.485 152.296 C 145.311 152.753 145.83 153.616 145.846 154.56 C 145.871 156.014 144.714 157.214 143.259 157.242 C 141.805 157.271 140.602 156.116 140.571 154.662 L 140.571 154.662 Z " id="Path" fill="rgb(46,46,46)"/><path d=" M 105.668 155.248 C 105.668 152.179 108.158 149.688 111.227 149.688 C 114.297 149.689 116.786 152.178 116.788 155.248 C 116.786 158.319 114.298 160.807 111.227 160.809 C 108.157 160.807 105.669 158.318 105.668 155.248 Z " id="Path" fill="rgb(255,255,255)"/><path d=" M 107.027 154.662 C 107.055 153.225 108.228 152.075 109.665 152.075 C 111.101 152.075 112.274 153.225 112.302 154.662 C 112.301 156.118 111.121 157.299 109.665 157.3 C 108.209 157.299 107.028 156.118 107.027 154.662 L 107.027 154.662 Z " id="Path" fill="rgb(46,46,46)"/><g opacity="0.4"><linearGradient id="_lgradient_138" x1="0.5166666666666668" y1="0" x2="0.5166666666666666" y2="1.0000000000000002" gradientTransform="matrix(244.65,0,0,228.34,5.68,11.95)" gradientUnits="userSpaceOnUse"><stop offset="0%" stop-opacity="1" style="stop-color:rgb(255,255,255)"/><stop offset="12.5%" stop-opacity="0.09803922" style="stop-color:rgb(255,255,255)"/><stop offset="92.500001%" stop-opacity="0.09803922" style="stop-color:rgb(0,0,0)"/><stop offset="100%" stop-opacity="0.49803922" style="stop-color:rgb(0,0,0)"/></linearGradient><path d=" M 165.068 11.951 C 169.396 11.941 173.724 11.991 178.052 12.089 C 181.927 12.167 185.803 12.315 189.678 12.541 C 193.131 12.737 196.583 13.022 200.026 13.395 C 203.085 13.73 206.144 14.181 209.174 14.741 C 211.889 15.243 214.574 15.881 217.22 16.657 C 219.62 17.355 221.971 18.219 224.243 19.241 C 226.358 20.184 228.384 21.304 230.302 22.591 C 232.142 23.829 233.863 25.244 235.437 26.806 C 237.001 28.378 238.417 30.088 239.656 31.925 C 240.945 33.841 242.066 35.865 243.02 37.967 C 244.043 40.247 244.909 42.585 245.617 44.972 C 246.394 47.615 247.034 50.297 247.535 53.009 C 248.096 56.035 248.548 59.081 248.883 62.136 C 249.257 65.575 249.542 69.014 249.739 72.462 C 249.965 76.323 250.112 80.194 250.201 84.055 C 250.289 88.378 250.339 92.701 250.329 97.014 L 250.329 155.226 C 250.339 159.549 250.289 163.862 250.201 168.185 C 250.112 172.056 249.965 175.917 249.739 179.778 C 249.542 183.226 249.257 186.675 248.883 190.104 C 248.548 193.159 248.096 196.215 247.535 199.241 C 247.034 201.943 246.394 204.625 245.617 207.268 C 244.909 209.655 244.043 212.003 243.02 214.273 C 242.066 216.385 240.945 218.399 239.656 220.315 C 238.417 222.152 237.001 223.872 235.437 225.434 C 233.863 226.996 232.142 228.411 230.302 229.649 C 228.384 230.936 226.358 232.056 224.243 232.999 C 221.971 234.021 219.62 234.885 217.22 235.593 C 214.574 236.369 211.889 237.007 209.174 237.499 C 206.144 238.068 203.085 238.51 200.026 238.845 C 196.583 239.218 193.131 239.503 189.678 239.699 C 185.803 239.925 181.927 240.073 178.052 240.161 C 173.724 240.249 169.396 240.299 165.068 240.289 L 90.942 240.289 C 86.614 240.299 82.286 240.249 77.958 240.161 C 74.083 240.073 70.207 239.925 66.332 239.699 C 62.879 239.503 59.427 239.218 55.984 238.845 C 52.925 238.51 49.866 238.068 46.836 237.499 C 44.121 237.007 41.436 236.369 38.79 235.593 C 36.39 234.885 34.039 234.021 31.767 232.999 C 29.652 232.056 27.626 230.936 25.708 229.649 C 23.868 228.411 22.147 226.996 20.573 225.434 C 19.009 223.872 17.593 222.152 16.354 220.315 C 15.065 218.399 13.944 216.385 12.99 214.273 C 11.967 212.003 11.101 209.655 10.393 207.268 C 9.616 204.625 8.976 201.943 8.475 199.241 C 7.914 196.215 7.462 193.159 7.127 190.104 C 6.753 186.675 6.468 183.226 6.271 179.778 C 6.045 175.917 5.898 172.056 5.809 168.185 C 5.721 163.862 5.671 159.549 5.681 155.226 L 5.681 97.014 C 5.671 92.701 5.721 88.378 5.809 84.055 C 5.898 80.194 6.045 76.323 6.271 72.462 C 6.468 69.014 6.753 65.575 7.127 62.136 C 7.462 59.081 7.914 56.035 8.475 53.009 C 8.976 50.297 9.616 47.615 10.393 44.972 C 11.101 42.585 11.967 40.247 12.99 37.967 C 13.944 35.865 15.065 33.841 16.354 31.925 C 17.593 30.088 19.009 28.378 20.573 26.806 C 22.147 25.244 23.868 23.829 25.708 22.591 C 27.626 21.304 29.652 20.184 31.767 19.241 C 34.039 18.219 36.39 17.355 38.79 16.657 C 41.436 15.881 44.121 15.243 46.836 14.741 C 49.866 14.181 52.925 13.73 55.984 13.395 C 59.427 13.022 62.879 12.737 66.332 12.541 C 70.207 12.315 74.083 12.167 77.958 12.089 C 82.286 11.991 86.614 11.941 90.942 11.951 L 165.068 11.951 Z  M 165.078 15.96 C 169.376 15.95 173.675 15.999 177.973 16.087 C 181.8 16.176 185.626 16.323 189.452 16.539 C 192.836 16.736 196.219 17.011 199.583 17.384 C 202.554 17.699 205.515 18.131 208.446 18.681 C 211.023 19.153 213.58 19.762 216.099 20.499 C 218.322 21.147 220.495 21.953 222.6 22.896 C 224.509 23.751 226.338 24.763 228.069 25.922 C 229.692 27.013 231.207 28.26 232.594 29.646 C 233.981 31.031 235.23 32.544 236.332 34.165 C 237.492 35.894 238.506 37.712 239.361 39.608 C 240.306 41.72 241.112 43.892 241.761 46.102 C 242.509 48.617 243.109 51.162 243.591 53.736 C 244.132 56.664 244.565 59.611 244.889 62.578 C 245.263 65.938 245.539 69.308 245.735 72.688 C 245.952 76.51 246.109 80.322 246.188 84.144 C 246.276 88.437 246.325 92.721 246.325 97.014 C 246.325 97.014 246.325 97.014 246.325 97.014 L 246.325 155.226 C 246.325 155.226 246.325 155.226 246.325 155.226 C 246.325 159.519 246.276 163.803 246.188 168.096 C 246.109 171.918 245.952 175.74 245.735 179.552 C 245.539 182.932 245.263 186.302 244.889 189.672 C 244.565 192.629 244.132 195.576 243.591 198.504 C 243.109 201.078 242.509 203.623 241.761 206.138 C 241.112 208.358 240.306 210.52 239.361 212.632 C 238.506 214.528 237.492 216.356 236.332 218.075 C 235.23 219.706 233.981 221.219 232.594 222.604 C 231.207 223.98 229.692 225.227 228.069 226.318 C 226.338 227.477 224.509 228.489 222.6 229.344 C 220.495 230.297 218.322 231.093 216.099 231.741 C 213.58 232.478 211.023 233.087 208.446 233.559 C 205.515 234.109 202.554 234.541 199.583 234.865 C 196.219 235.229 192.836 235.514 189.452 235.701 C 185.626 235.917 181.8 236.074 177.973 236.153 C 173.675 236.251 169.376 236.29 165.078 236.29 C 165.078 236.29 165.078 236.29 165.068 236.29 L 90.942 236.29 C 90.932 236.29 90.932 236.29 90.932 236.29 C 86.634 236.29 82.335 236.251 78.037 236.153 C 74.21 236.074 70.384 235.917 66.558 235.701 C 63.174 235.514 59.791 235.229 56.427 234.865 C 53.456 234.541 50.495 234.109 47.564 233.559 C 44.987 233.087 42.43 232.478 39.911 231.741 C 37.688 231.093 35.515 230.297 33.41 229.344 C 31.501 228.489 29.672 227.477 27.941 226.318 C 26.318 225.227 24.803 223.98 23.416 222.604 C 22.029 221.219 20.78 219.706 19.678 218.075 C 18.518 216.356 17.504 214.528 16.649 212.632 C 15.704 210.52 14.898 208.358 14.249 206.138 C 13.501 203.623 12.901 201.078 12.419 198.504 C 11.878 195.576 11.445 192.629 11.121 189.672 C 10.747 186.302 10.472 182.932 10.275 179.552 C 10.058 175.74 9.901 171.918 9.822 168.096 C 9.734 163.803 9.685 159.519 9.685 155.226 C 9.685 155.226 9.685 155.226 9.685 155.226 L 9.685 97.014 C 9.685 97.014 9.685 97.014 9.685 97.014 C 9.685 92.721 9.734 88.437 9.822 84.144 C 9.901 80.322 10.058 76.51 10.275 72.688 C 10.472 69.308 10.747 65.938 11.121 62.578 C 11.445 59.611 11.878 56.664 12.419 53.736 C 12.901 51.162 13.501 48.617 14.249 46.102 C 14.898 43.892 15.704 41.72 16.649 39.608 C 17.504 37.712 18.518 35.894 19.678 34.165 C 20.78 32.544 22.029 31.031 23.416 29.646 C 24.803 28.26 26.318 27.013 27.941 25.922 C 29.672 24.763 31.501 23.751 33.41 22.896 C 35.515 21.953 37.688 21.147 39.911 20.499 C 42.43 19.762 44.987 19.153 47.564 18.681 C 50.495 18.131 53.456 17.699 56.427 17.384 C 59.791 17.011 63.174 16.736 66.558 16.539 C 70.384 16.323 74.21 16.176 78.037 16.087 C 82.335 15.999 86.634 15.95 90.932 15.96 C 90.932 15.96 90.932 15.96 90.942 15.96 L 165.068 15.96 C 165.078 15.96 165.078 15.96 165.078 15.96 Z " fill-rule="evenodd" id="highlight" fill="url(#_lgradient_138)"/></g></svg>
